X: 3005
Q:"Strathspey."
M: C
L: 1/16
K: D
uA2 |\
f2 |\
a3ba3f g3ag3e | (fga2) d3f e3A A3d |\
fa3 e3f | dD3D3f |\
a3ba3f g3ag3e | (fga2) d3f eA3 A3d |\


